app/images/icons/AR_icon.svg

<svg width="58" height="67" viewBox="0 0 58 67" fill="none" xmlns="http://www.w3.org/2000/svg">
<g clip-path="url(#clip0_101_387)">
<path opacity="0.6" d="M37.1405 7.3719C36.8992 7.37274 36.6619 7.3101 36.4525 7.19023L29.1636 2.96452L21.846 7.19023C21.6892 7.28064 21.5164 7.33922 21.3367 7.36268C21.1573 7.38614 20.9749 7.374 20.8003 7.32695C20.6256 7.2799 20.4617 7.19886 20.3183 7.08847C20.1749 6.97807 20.0544 6.84048 19.9642 6.68353C19.874 6.52659 19.8153 6.35339 19.7919 6.17381C19.7685 5.99422 19.7806 5.81179 19.8276 5.63688C19.8747 5.46201 19.9555 5.29809 20.066 5.15452C20.1762 5.01095 20.3138 4.89052 20.4706 4.80013L28.4854 0.201585C28.6943 0.0797883 28.9316 0.015625 29.1733 0.015625C29.4148 0.015625 29.6521 0.0797883 29.861 0.201585L37.8376 4.81925C38.1013 4.97016 38.3078 5.20415 38.4246 5.48471C38.5414 5.76526 38.5622 6.07665 38.4835 6.37027C38.4051 6.66389 38.2317 6.92325 37.9905 7.1079C37.7493 7.29254 37.4536 7.39209 37.15 7.39101" fill="#05C8FE"/>
<path opacity="0.6" d="M29.1636 43.6897C28.9787 43.6897 28.7958 43.6525 28.6259 43.5804C28.4557 43.5083 28.302 43.4027 28.1736 43.2697C28.0453 43.1368 27.9448 42.9793 27.8785 42.8066C27.8124 42.6341 27.7814 42.4498 27.788 42.265V33.0679C27.788 32.8873 27.8235 32.7082 27.8927 32.541C27.9619 32.3741 28.0632 32.2225 28.1907 32.0945C28.3186 31.9665 28.4701 31.8652 28.6372 31.7962C28.804 31.7269 28.9829 31.6914 29.1636 31.6914C29.3441 31.6914 29.523 31.7269 29.69 31.7962C29.8568 31.8652 30.0084 31.9665 30.1362 32.0945C30.2641 32.2225 30.3654 32.3741 30.4343 32.541C30.5035 32.7082 30.539 32.8873 30.539 33.0679V42.265C30.539 42.6302 30.3943 42.9804 30.1362 43.2387C29.8782 43.4967 29.5283 43.6417 29.1636 43.6417" fill="#05C8FE"/>
<path opacity="0.6" d="M1.74672 27.8208C1.38188 27.8208 1.03198 27.6757 0.774004 27.4177C0.516027 27.1594 0.371094 26.8093 0.371094 26.4441V17.2088C0.371094 16.8438 0.516027 16.4937 0.774004 16.2354C1.03198 15.9771 1.38188 15.832 1.74672 15.832C2.11156 15.832 2.46146 15.9771 2.71944 16.2354C2.97741 16.4937 3.12234 16.8438 3.12234 17.2088V26.4441C3.12234 26.8093 2.97741 27.1594 2.71944 27.4177C2.46146 27.6757 2.11156 27.8208 1.74672 27.8208Z" fill="#05C8FE"/>
<path opacity="0.6" d="M56.5514 27.8208C56.1868 27.8208 55.8369 27.6757 55.5788 27.4177C55.3207 27.1594 55.1758 26.8093 55.1758 26.4441V17.2088C55.1758 16.8438 55.3207 16.4937 55.5788 16.2354C55.8369 15.9771 56.1868 15.832 56.5514 15.832C56.9163 15.832 57.2662 15.9771 57.5243 16.2354C57.7821 16.4937 57.9271 16.8438 57.9271 17.2088V26.4441C57.9271 26.8093 57.7821 27.1594 57.5243 27.4177C57.2662 27.6757 56.9163 27.8208 56.5514 27.8208Z" fill="#05C8FE"/>
<path opacity="0.6" d="M56.5612 50.3088C56.2013 50.3091 55.8556 50.1679 55.5986 49.916C55.3413 49.664 55.1932 49.321 55.1855 48.961V39.6873C55.1855 39.3221 55.3305 38.9719 55.5886 38.7139C55.8464 38.4556 56.1963 38.3105 56.5612 38.3105C56.9261 38.3105 57.276 38.4556 57.5338 38.7139C57.7919 38.9719 57.9368 39.3221 57.9368 39.6873V48.961C57.9368 49.326 57.7919 49.6761 57.5338 49.9344C57.276 50.1927 56.9261 50.3375 56.5612 50.3375V50.3088Z" fill="#05C8FE"/>
<path opacity="0.6" d="M1.74672 50.3088C1.3868 50.3091 1.04116 50.1679 0.784 49.916C0.526838 49.664 0.378592 49.321 0.371094 48.961V39.6873C0.371094 39.3221 0.516027 38.9719 0.774004 38.7139C1.03198 38.4556 1.38188 38.3105 1.74672 38.3105C2.11156 38.3105 2.46146 38.4556 2.71944 38.7139C2.97741 38.9719 3.12234 39.3221 3.12234 39.6873V48.961C3.12234 49.326 2.97741 49.6761 2.71944 49.9344C2.46146 50.1927 2.11156 50.3375 1.74672 50.3375" fill="#05C8FE"/>
<path opacity="0.6" d="M29.1628 12.8204C28.7979 12.8204 28.448 12.6756 28.1899 12.4173C27.9321 12.159 27.7871 11.8088 27.7871 11.4439V1.37668C27.7871 1.1959 27.8226 1.01687 27.8918 0.849838C27.961 0.682809 28.0623 0.53105 28.1899 0.403224C28.3177 0.275372 28.4693 0.173953 28.6363 0.104787C28.8031 0.0355956 28.982 0 29.1628 0C29.3435 0 29.5221 0.0355956 29.6892 0.104787C29.856 0.173953 30.0078 0.275372 30.1354 0.403224C30.2632 0.53105 30.3645 0.682809 30.4337 0.849838C30.5026 1.01687 30.5384 1.1959 30.5384 1.37668V11.4439C30.5384 11.8088 30.3935 12.159 30.1354 12.4173C29.8776 12.6756 29.5277 12.8204 29.1628 12.8204Z" fill="#05C8FE"/>
<path opacity="0.6" d="M29.1628 66.1685C28.7979 66.1685 28.448 66.0234 28.1899 65.7654C27.9321 65.5071 27.7871 65.1569 27.7871 64.7918V55.5662C27.7871 55.3853 27.8226 55.2063 27.8918 55.0393C27.961 54.8722 28.0623 54.7205 28.1899 54.5925C28.3177 54.4649 28.4693 54.3635 28.6363 54.2942C28.8031 54.225 28.982 54.1895 29.1628 54.1895C29.3435 54.1895 29.5221 54.225 29.6892 54.2942C29.856 54.3635 30.0078 54.4649 30.1354 54.5925C30.2632 54.7205 30.3645 54.8722 30.4337 55.0393C30.5026 55.2063 30.5384 55.3853 30.5384 55.5662V64.8015C30.5358 65.1648 30.3898 65.5126 30.132 65.7688C29.8744 66.0247 29.5258 66.1685 29.1628 66.1685Z" fill="#05C8FE"/>
<path opacity="0.6" d="M29.1623 66.1651C28.9213 66.1653 28.684 66.1027 28.4746 65.9834L20.4501 61.3848C20.1333 61.2021 19.9021 60.9012 19.8071 60.5481C19.7121 60.1948 19.7613 59.8183 19.9436 59.5013C20.1262 59.1843 20.4269 58.9528 20.78 58.8578C21.1328 58.763 21.509 58.812 21.8257 58.9947L29.172 63.2489L36.413 59.0521C36.715 58.9407 37.0468 58.9389 37.3501 59.0471C37.6535 59.1553 37.9092 59.3667 38.0728 59.6442C38.2364 59.9217 38.2977 60.2479 38.2457 60.566C38.1938 60.884 38.032 61.1737 37.7887 61.3848L29.8597 65.9834C29.6505 66.1034 29.4132 66.1661 29.172 66.1651" fill="#05C8FE"/>
<path opacity="0.6" d="M29.1636 34.4456C28.9226 34.4461 28.6853 34.3834 28.4759 34.2639L20.4706 29.6366C20.1538 29.4542 19.9226 29.1532 19.8276 28.7999C19.7326 28.4468 19.7818 28.0703 19.9641 27.7533C20.1465 27.4363 20.4474 27.2049 20.8002 27.1099C21.1533 27.0148 21.5295 27.064 21.8462 27.2468L29.1636 31.4723L36.4525 27.2468C36.7666 27.0854 37.1304 27.0509 37.469 27.1507C37.8076 27.2502 38.0949 27.4763 38.2717 27.782C38.4485 28.088 38.5008 28.45 38.4182 28.7933C38.3356 29.1369 38.1244 29.4352 37.8281 29.6271L29.8515 34.2544C29.6421 34.3747 29.4048 34.4374 29.1636 34.4361" fill="#05C8FE"/>
<path opacity="0.6" d="M48.5651 23.2134C48.2612 23.2145 47.9658 23.115 47.7245 22.9304C47.4833 22.7456 47.3099 22.4862 47.2312 22.1927C47.1528 21.8991 47.1736 21.5876 47.2904 21.3072C47.4072 21.0266 47.6135 20.7925 47.8771 20.6416L55.8635 16.0241C56.1802 15.8414 56.5564 15.7921 56.9092 15.8872C57.2623 15.9822 57.563 16.2137 57.7453 16.5307C57.9279 16.8477 57.9771 17.2242 57.8821 17.5772C57.7871 17.9306 57.5559 18.2315 57.2391 18.4142L49.2528 23.0318C49.0433 23.1516 48.8063 23.2142 48.5651 23.2134Z" fill="#05C8FE"/>
<path opacity="0.6" d="M56.5506 18.5823C56.3093 18.5836 56.072 18.5209 55.8629 18.4006L47.8671 13.7736C47.5503 13.5909 47.3191 13.2899 47.2241 12.9366C47.1291 12.5835 47.1783 12.207 47.3606 11.89C47.5432 11.573 47.8439 11.3416 48.1967 11.2466C48.5497 11.1515 48.926 11.2008 49.2427 11.3835L57.2385 16.0108C57.5021 16.1616 57.7084 16.3954 57.8252 16.6761C57.942 16.9567 57.9628 17.268 57.8844 17.5615C57.8057 17.8553 57.6324 18.1147 57.3911 18.2992C57.1499 18.4838 56.8544 18.5833 56.5506 18.5823Z" fill="#05C8FE"/>
<path opacity="0.6" d="M9.73331 23.2143C9.49232 23.215 9.25503 23.1524 9.04562 23.0326L1.05937 18.3671C0.902572 18.2768 0.765086 18.1563 0.65475 18.0128C0.54444 17.8693 0.46349 17.7052 0.416451 17.5304C0.369438 17.3556 0.357311 17.1731 0.380751 16.9936C0.404192 16.8138 0.462754 16.6408 0.55307 16.4839C0.643386 16.3267 0.763718 16.1892 0.907176 16.0789C1.05063 15.9683 1.21443 15.8872 1.38917 15.8404C1.56393 15.7933 1.74622 15.7811 1.92567 15.8046C2.10512 15.828 2.27817 15.8867 2.43499 15.977L10.4307 20.5948C10.6943 20.7457 10.9009 20.9795 11.0177 21.2601C11.1345 21.5408 11.1553 21.852 11.0766 22.1458C10.9982 22.4394 10.8248 22.6987 10.5836 22.8833C10.3423 23.0679 10.0466 23.1677 9.74304 23.1663" fill="#05C8FE"/>
<path opacity="0.6" d="M1.74572 18.5846C1.442 18.5857 1.14648 18.4861 0.905209 18.3016C0.663964 18.1167 0.490539 17.8574 0.41201 17.5638C0.33348 17.2703 0.354263 16.9588 0.471098 16.6781C0.587932 16.3977 0.794268 16.1637 1.05793 16.0128L9.04412 11.4048C9.36087 11.222 9.73707 11.1731 10.0899 11.2681C10.4429 11.3629 10.7436 11.5943 10.9262 11.9113C11.1085 12.2283 11.1577 12.6048 11.0627 12.9582C10.9678 13.3112 10.7365 13.6122 10.4198 13.7949L2.43352 18.3648C2.22398 18.484 1.98689 18.5467 1.74572 18.5464" fill="#05C8FE"/>
<path opacity="0.6" d="M48.5552 54.9225C48.2516 54.9235 47.9559 54.824 47.7147 54.6392C47.4735 54.4546 47.3001 54.1953 47.2217 53.9017C47.143 53.6081 47.1638 53.2967 47.2806 53.016C47.3974 52.7356 47.6039 52.5015 47.8675 52.3507L55.8728 47.7329C56.0296 47.6426 56.2027 47.5839 56.3822 47.5604C56.5616 47.537 56.7439 47.5491 56.9186 47.5962C57.0935 47.6434 57.2572 47.7245 57.4006 47.8348C57.5442 47.9451 57.6644 48.0828 57.7547 48.2397C57.8452 48.3966 57.9036 48.5699 57.927 48.7494C57.9507 48.929 57.9383 49.1115 57.8915 49.2863C57.8444 49.4611 57.7633 49.6251 57.6531 49.7686C57.5429 49.9124 57.4053 50.0327 57.2485 50.123L49.2432 54.7408C49.0338 54.8606 48.7965 54.9233 48.5552 54.9225Z" fill="#05C8FE"/>
<path opacity="0.6" d="M56.5506 50.3069C56.3093 50.3082 56.072 50.2456 55.8629 50.1253L47.8671 45.5077C47.5503 45.3253 47.3191 45.0241 47.2241 44.671C47.1291 44.3177 47.1783 43.9412 47.3606 43.6244C47.5432 43.3074 47.8439 43.076 48.1967 42.981C48.5497 42.8859 48.926 42.9351 49.2427 43.1176L57.2385 47.7354C57.5021 47.8863 57.7084 48.1201 57.8252 48.4007C57.942 48.6814 57.9628 48.9926 57.8844 49.2864C57.8057 49.58 57.6324 49.8393 57.3911 50.0239C57.1499 50.2084 56.8544 50.3082 56.5506 50.3069Z" fill="#05C8FE"/>
<path opacity="0.6" d="M9.73231 54.9319C9.49106 54.9327 9.25376 54.87 9.04435 54.7502L1.04863 50.123C0.731936 49.9405 0.500661 49.6396 0.405715 49.2862C0.310769 48.9332 0.359912 48.5567 0.542332 48.2397C0.724726 47.9227 1.02551 47.6912 1.37843 47.5962C1.73135 47.5011 2.10753 47.5504 2.42426 47.7328L10.42 52.3601C10.6836 52.511 10.8901 52.745 11.0069 53.0257C11.1237 53.3061 11.1445 53.6176 11.0659 53.9111C10.9875 54.2047 10.8141 54.464 10.5729 54.6489C10.3316 54.8334 10.0359 54.9329 9.73231 54.9319Z" fill="#05C8FE"/>
<path opacity="0.6" d="M1.74572 50.3087C1.442 50.31 1.14648 50.2102 0.905209 50.0257C0.663964 49.8411 0.490539 49.5818 0.41201 49.2882C0.33348 48.9944 0.354263 48.6832 0.471098 48.4025C0.587932 48.1219 0.794268 47.8881 1.05793 47.7372L9.03465 43.1099C9.3514 42.9272 9.7276 42.8782 10.0804 42.973C10.4334 43.0681 10.7342 43.2995 10.9165 43.6165C11.099 43.9335 11.148 44.31 11.0533 44.6633C10.9583 45.0164 10.727 45.3173 10.4103 45.5L2.43352 50.1176C2.22414 50.2374 1.98694 50.3 1.74572 50.2992" fill="#05C8FE"/>
<g opacity="0.2">
<g opacity="0.2">
<path opacity="0.2" d="M1.74601 17.9927C1.57361 17.9927 1.40603 17.9355 1.26928 17.8305C1.13253 17.7254 1.03422 17.5782 0.989598 17.4116C0.944953 17.2449 0.956529 17.0683 1.02246 16.9087C1.08841 16.7494 1.20506 16.6162 1.35433 16.5298L28.7713 0.688243C28.9507 0.588536 29.1625 0.563418 29.3604 0.618313C29.5585 0.673235 29.7268 0.803747 29.8294 0.981781C29.9323 1.15979 29.961 1.37108 29.9097 1.5701C29.8581 1.76912 29.7308 1.93996 29.5545 2.04583L2.13766 17.8873C2.01859 17.9563 1.88352 17.9927 1.74601 17.9927Z" fill="#05C8FE"/>
</g>
</g>
<g opacity="0.2">
<g opacity="0.2">
<path opacity="0.2" d="M1.74601 49.7141C1.57361 49.7141 1.40603 49.6573 1.26928 49.5522C1.13253 49.4472 1.03422 49.2997 0.989598 49.1331C0.944953 48.9664 0.956529 48.7897 1.02246 48.6304C1.08841 48.4709 1.20506 48.3377 1.35433 48.2516L56.1594 16.5299C56.3391 16.4304 56.5506 16.4051 56.7487 16.4602C56.9465 16.5149 57.1151 16.6455 57.2177 16.8235C57.3206 17.0015 57.3493 17.2129 57.2977 17.412C57.2464 17.611 57.1188 17.7819 56.9428 17.8877L2.13766 49.6091C2.01859 49.6778 1.88352 49.7141 1.74601 49.7141Z" fill="#05C8FE"/>
</g>
</g>
<g opacity="0.2">
<g opacity="0.2">
<path opacity="0.2" d="M56.5506 17.9947C56.413 17.9947 56.2781 17.9583 56.1589 17.8896L28.7706 2.05754C28.5946 1.9517 28.467 1.78085 28.4157 1.58183C28.3641 1.38279 28.3928 1.1715 28.4957 0.993492C28.5983 0.815457 28.7669 0.684945 28.9647 0.63005C29.1628 0.575128 29.3744 0.600247 29.554 0.69998L56.9423 16.5416C57.0915 16.628 57.2081 16.7612 57.2741 16.9205C57.3401 17.08 57.3517 17.2567 57.307 17.4233C57.2623 17.59 57.1641 17.7372 57.0273 17.8422C56.8905 17.9473 56.7229 18.0042 56.5506 18.0044" fill="#05C8FE"/>
</g>
</g>
<g opacity="0.2">
<g opacity="0.2">
<path opacity="0.2" d="M56.5514 49.7141C56.4138 49.7147 56.2786 49.6783 56.1597 49.6091L1.35459 17.8877C1.17851 17.7819 1.05099 17.611 0.999561 17.412C0.948129 17.2129 0.976882 17.0015 1.07959 16.8235C1.18232 16.6455 1.3508 16.5149 1.54877 16.4602C1.74671 16.4051 1.95831 16.4304 2.13791 16.5299L56.9526 48.2516C57.1018 48.3377 57.2186 48.4709 57.2844 48.6304C57.3504 48.7897 57.362 48.9664 57.3172 49.1331C57.2728 49.2997 57.1744 49.4472 57.0376 49.5522C56.9008 49.6573 56.7335 49.7141 56.5609 49.7141" fill="#05C8FE"/>
</g>
</g>
<g opacity="0.2">
<g opacity="0.2">
<path opacity="0.2" d="M29.1631 65.5932C29.0258 65.5932 28.8905 65.5569 28.7714 65.4882L1.35459 49.6083C1.17851 49.5024 1.05099 49.3316 0.999561 49.1325C0.948129 48.9335 0.976882 48.7223 1.07959 48.5443C1.18232 48.3661 1.3508 48.2358 1.54877 48.1807C1.74671 48.126 1.95831 48.151 2.13791 48.2508L29.5643 64.1307C29.7137 64.2168 29.8303 64.35 29.8963 64.5095C29.9621 64.6688 29.9736 64.8455 29.9292 65.0122C29.8845 65.1788 29.7861 65.3263 29.6495 65.4313C29.5127 65.5364 29.3451 65.5932 29.1728 65.5932" fill="#05C8FE"/>
</g>
</g>
<g opacity="0.2">
<g opacity="0.2">
<path opacity="0.2" d="M29.1728 65.5932C29.0005 65.5932 28.8329 65.5364 28.6961 65.4313C28.5593 65.3263 28.4611 65.1788 28.4164 65.0122C28.3717 64.8455 28.3833 64.6688 28.4493 64.5095C28.5153 64.35 28.6319 64.2168 28.781 64.1307L56.1599 48.2508C56.3396 48.151 56.5511 48.126 56.7489 48.1807C56.947 48.2358 57.1154 48.3661 57.2183 48.5443C57.3209 48.7223 57.3495 48.9335 57.2982 49.1325C57.2467 49.3316 57.1193 49.5024 56.9431 49.6083L29.5645 65.4882C29.4453 65.5569 29.3104 65.5932 29.1728 65.5932Z" fill="#05C8FE"/>
</g>
</g>
<g opacity="0.2">
<g opacity="0.2">
<path opacity="0.2" d="M1.74667 49.7133C1.5471 49.7086 1.35687 49.6278 1.21485 49.4874C1.07282 49.3468 0.989683 49.1575 0.982422 48.958V17.2079C0.982422 16.9999 1.06495 16.8006 1.21186 16.6534C1.35876 16.5065 1.55802 16.4238 1.76577 16.4238C1.97353 16.4238 2.17276 16.5065 2.31966 16.6534C2.46657 16.8006 2.5491 16.9999 2.5491 17.2079V48.958C2.5491 49.166 2.46657 49.3653 2.31966 49.5124C2.17276 49.6594 1.97353 49.742 1.76577 49.742" fill="#05C8FE"/>
</g>
</g>
<g opacity="0.2">
<g opacity="0.2">
<path opacity="0.2" d="M56.5608 49.7133C56.353 49.7133 56.1538 49.6307 56.0068 49.4837C55.86 49.3366 55.7773 49.1373 55.7773 48.9293V17.2079C55.7773 16.9999 55.86 16.8006 56.0068 16.6534C56.1538 16.5065 56.353 16.4238 56.5608 16.4238C56.7684 16.4238 56.9678 16.5065 57.1146 16.6534C57.2614 16.8006 57.344 16.9999 57.344 17.2079V48.958C57.344 49.166 57.2614 49.3653 57.1146 49.5124C56.9678 49.6594 56.7684 49.742 56.5608 49.742" fill="#05C8FE"/>
</g>
</g>
<g opacity="0.2">
<g opacity="0.2">
<path opacity="0.2" d="M29.1621 65.4975C28.9543 65.4975 28.7551 65.4148 28.6083 65.2679C28.4613 65.1207 28.3789 64.9214 28.3789 64.7134V1.37576C28.3789 1.16784 28.4613 0.968456 28.6083 0.821436C28.7551 0.674417 28.9543 0.591797 29.1621 0.591797C29.3699 0.591797 29.5691 0.674417 29.7161 0.821436C29.8629 0.968456 29.9455 1.16784 29.9455 1.37576V64.7134C29.9455 64.9214 29.8629 65.1207 29.7161 65.2679C29.5691 65.4148 29.3699 65.4975 29.1621 65.4975Z" fill="#05C8FE"/>
</g>
</g>
</g>
<defs>
<clipPath id="clip0_101_387">
<rect width="58" height="67" fill="white"/>
</clipPath>
</defs>
</svg>

<svg width="58" height="67" fill="none" xmlns="http://www.w3.org/2000/svg"><g clip-path="url(#clip0_101_387)" fill="#05C8FE"><path opacity=".6" d="M37.14 7.372c-.24 0-.478-.062-.688-.182l-7.288-4.225-7.318 4.225a1.375 1.375 0 01-1.882-.506 1.381 1.381 0 01.507-1.884L28.485.202a1.366 1.366 0 011.376 0l7.977 4.617a1.376 1.376 0 01-.688 2.572M29.164 43.69a1.377 1.377 0 01-1.376-1.425v-9.197a1.378 1.378 0 011.376-1.377 1.373 1.373 0 011.375 1.377v9.197a1.377 1.377 0 01-1.375 1.377M1.747 27.82A1.376 1.376 0 01.37 26.445V17.21a1.378 1.378 0 011.376-1.377 1.375 1.375 0 011.375 1.377v9.235a1.378 1.378 0 01-1.375 1.377zm54.804 0a1.376 1.376 0 01-1.375-1.376V17.21a1.377 1.377 0 012.348-.974c.258.259.403.609.403.974v9.235a1.378 1.378 0 01-1.376 1.377zm.01 22.489a1.374 1.374 0 01-1.376-1.348v-9.274a1.376 1.376 0 112.752 0v9.274a1.377 1.377 0 01-1.376 1.377v-.03zm-54.814 0A1.374 1.374 0 01.37 48.96v-9.274a1.377 1.377 0 112.751 0v9.274a1.378 1.378 0 01-1.375 1.377"/><path opacity=".6" d="M29.163 12.82a1.375 1.375 0 01-1.376-1.376V1.377a1.376 1.376 0 112.751 0v10.067a1.377 1.377 0 01-1.375 1.376zm0 53.348a1.376 1.376 0 01-1.376-1.376v-9.226a1.376 1.376 0 112.751 0v9.236a1.378 1.378 0 01-1.375 1.366z"/><path opacity=".6" d="M29.162 66.165c-.24 0-.478-.062-.687-.182l-8.025-4.598a1.38 1.38 0 011.376-2.39l7.346 4.254 7.241-4.197a1.374 1.374 0 011.833 1.514 1.378 1.378 0 01-.457.819l-7.93 4.598a1.37 1.37 0 01-.687.182m-.008-31.719c-.241 0-.479-.063-.688-.182l-8.005-4.627a1.378 1.378 0 011.375-2.39l7.318 4.225 7.288-4.225a1.374 1.374 0 011.82.535 1.377 1.377 0 01-.444 1.845l-7.977 4.627c-.209.12-.446.183-.687.182m19.401-11.223a1.375 1.375 0 01-1.275-1.906c.117-.28.324-.514.587-.665l7.986-4.618a1.376 1.376 0 011.882.507 1.379 1.379 0 01-.506 1.883l-7.986 4.618c-.21.12-.447.182-.688.181z"/><path opacity=".6" d="M56.55 18.582a1.364 1.364 0 01-.687-.181l-7.996-4.627a1.38 1.38 0 011.376-2.39l7.995 4.627a1.375 1.375 0 01.153 2.288 1.375 1.375 0 01-.84.283zM9.733 23.214a1.38 1.38 0 01-.687-.181l-7.987-4.666a1.378 1.378 0 011.376-2.39l7.996 4.618a1.376 1.376 0 01-.688 2.571"/><path opacity=".6" d="M1.746 18.585a1.376 1.376 0 01-.688-2.572l7.986-4.608a1.376 1.376 0 011.882.506 1.38 1.38 0 01-.506 1.884l-7.986 4.57c-.21.119-.447.182-.688.181m46.809 36.376a1.375 1.375 0 01-1.274-1.906c.116-.28.323-.514.587-.665l8.005-4.618a1.38 1.38 0 011.882.507 1.376 1.376 0 01-.102 1.529c-.11.143-.248.264-.404.354l-8.006 4.618c-.21.12-.447.182-.688.181z"/><path opacity=".6" d="M56.55 50.307a1.364 1.364 0 01-.687-.182l-7.996-4.617a1.379 1.379 0 011.376-2.39l7.995 4.617a1.376 1.376 0 01-.687 2.572zM9.732 54.932c-.24 0-.478-.062-.688-.182L1.05 50.123a1.378 1.378 0 011.375-2.39l7.996 4.627a1.376 1.376 0 01-.688 2.572z"/><path opacity=".6" d="M1.746 50.309A1.374 1.374 0 01.47 48.403c.117-.281.323-.515.587-.666l7.977-4.627a1.377 1.377 0 012.018 1.553 1.38 1.38 0 01-.643.837l-7.976 4.618c-.21.12-.447.182-.688.181"/><path opacity=".2" d="M1.746 17.993a.783.783 0 01-.392-1.463L28.771.688a.783.783 0 01.784 1.358L2.137 17.887a.781.781 0 01-.392.106zm0 31.721a.782.782 0 01-.724-1.084.782.782 0 01.332-.378L56.16 16.53a.783.783 0 01.784 1.358L2.138 49.609a.784.784 0 01-.392.105z"/><path opacity=".2" d="M56.55 17.995a.784.784 0 01-.391-.105L28.77 2.058A.783.783 0 0129.554.7l27.388 15.842a.785.785 0 01-.391 1.462m0 31.71a.772.772 0 01-.391-.105L1.355 17.888a.784.784 0 01.783-1.358l54.815 31.722a.782.782 0 01.364.881.783.783 0 01-.756.581M29.163 65.593a.785.785 0 01-.392-.105L1.355 49.608a.784.784 0 01.783-1.357l27.426 15.88a.782.782 0 01.085 1.3.782.782 0 01-.476.162"/><path opacity=".2" d="M29.173 65.593a.782.782 0 01-.392-1.462L56.16 48.25a.783.783 0 01.783 1.357l-27.378 15.88a.784.784 0 01-.392.105zM1.747 49.713a.783.783 0 01-.765-.755v-31.75a.785.785 0 011.338-.555c.147.148.23.347.23.555v31.75a.784.784 0 01-.784.784"/><path opacity=".2" d="M56.56 49.713a.783.783 0 01-.783-.784V17.208a.785.785 0 01.784-.784.783.783 0 01.783.784v31.75a.785.785 0 01-.783.784M29.162 65.498a.783.783 0 01-.783-.785V1.376a.784.784 0 111.566 0v63.337a.785.785 0 01-.783.785z"/></g><defs><clipPath id="clip0_101_387"><path fill="#fff" d="M0 0h58v67H0z"/></clipPath></defs></svg>
